X:097 
T:Joe Derrane's  
T:Bit o' Ginger, Lilting Fisherman
B:CRE 3.025 (Port Sheosaimh UÃÂÃÂÃÂÃÂ­ DhearÃÂÃÂÃÂÃÂ¡in)
F:file ID: cre.3/097joe_d
N:Joe learned it from his teacher, Jerry O'Brien, who called it "Bit o' Ginger" in his tune book. Composed by Paddy Killoran?
Q:160
L:1/8
M:6/8
R:jig
K:G
B|dBG GBd|gfg efg|dBG GFG|AFD cBA|
dBG GBd|gfg efg|dBG FGA|BGF G2:|
F/G/|:A3 AFA|faf f2e|dfe d^cB|AFF F2G|
AFA AFA|BGB B^cd|^cec ABc|1 d3 d^cB:|2 d3 Hd3 |]

%%%

